svg/fluentui-system-icons/ic_fluent_font_space_tracking_in_24_filled.svg

<svg width="24" height="24" viewBox="0 0 24 24" fill="none" xmlns="http://www.w3.org/2000/svg">
<path d="M8.61317 16.2097L8.70737 16.2929L10.7074 18.2929C11.0679 18.6534 11.0956 19.2206 10.7906 19.6129L10.7074 19.7071L8.70737 21.7071C8.31685 22.0976 7.68369 22.0976 7.29316 21.7071C6.93268 21.3466 6.90495 20.7794 7.20997 20.3871L7.29316 20.2929L7.586 19.999L4.00027 20C3.44798 20 3.00027 19.5523 3.00027 19C3.00027 18.4872 3.38631 18.0645 3.88365 18.0067L4.00027 18L7.585 17.999L7.29316 17.7071C6.93268 17.3466 6.90495 16.7794 7.20997 16.3871L7.29316 16.2929C7.65365 15.9324 8.22088 15.9047 8.61317 16.2097ZM15.3874 16.2097C15.747 15.9301 16.2536 15.9301 16.6132 16.2097L16.7074 16.2929L16.7906 16.3871C17.0702 16.7467 17.0702 17.2533 16.7906 17.6129L16.7074 17.7071L16.415 17.999L20.0003 18C20.5526 18 21.0003 18.4477 21.0003 19C21.0003 19.5128 20.6142 19.9355 20.1169 19.9933L20.0003 20L16.414 19.999L16.7074 20.2929L16.7906 20.3871C17.0956 20.7794 17.0679 21.3466 16.7074 21.7071C16.3469 22.0676 15.7797 22.0953 15.3874 21.7903L15.2932 21.7071L13.2932 19.7071L13.21 19.6129C12.9304 19.2533 12.9304 18.7467 13.21 18.3871L13.2932 18.2929L15.2932 16.2929L15.3874 16.2097ZM9.119 2.44618L9.18277 2.54995L9.23586 2.66525L13.5402 13.6652C13.7415 14.1796 13.4877 14.7596 12.9734 14.9609C12.4958 15.1478 11.9615 14.9423 11.7265 14.5002L11.6777 14.394L10.5663 11.554H6.04227L4.93151 14.394C4.74463 14.8716 4.23112 15.1246 3.74692 14.9971L3.63587 14.9609C3.15829 14.774 2.90536 14.2605 3.03279 13.7763L3.06903 13.6652L7.37337 2.66525C7.67341 1.89849 8.68368 1.82547 9.119 2.44618ZM19.141 2.52972C19.376 2.08762 19.9103 1.88215 20.3879 2.06903C20.8654 2.2559 21.1184 2.76942 20.9909 3.25361L20.9547 3.36467L16.6504 14.3647L16.5973 14.48C16.226 15.1737 15.2122 15.1737 14.841 14.48L14.7879 14.3647L10.4835 3.36467L10.4473 3.25361C10.3297 2.80667 10.5361 2.33473 10.9442 2.11779L11.0504 2.06903L11.1614 2.03279C11.6084 1.91516 12.0803 2.12163 12.2973 2.52972L12.346 2.63587L15.7183 11.2563L19.0922 2.63587L19.141 2.52972ZM8.30427 5.773L6.82527 9.554H9.78327L8.30427 5.773Z" fill="#212121"/>
</svg>

<svg xmlns="http://www.w3.org/2000/svg" width="24" height="24"><path d="m8.613 16.21.094.083 2 2a1 1 0 0 1 .084 1.32l-.084.094-2 2a1 1 0 0 1-1.497-1.32l.083-.094.293-.294L4 20a1 1 0 0 1-.116-1.993L4 18l3.585-.001-.292-.292a1 1 0 0 1-.083-1.32l.083-.094a1 1 0 0 1 1.32-.083Zm6.774 0a1 1 0 0 1 1.226 0l.094.083.084.094a1 1 0 0 1 0 1.226l-.084.094-.292.292L20 18a1 1 0 0 1 .117 1.993L20 20l-3.586-.001.293.294.084.094a1 1 0 0 1-1.404 1.403l-.094-.083-2-2-.083-.094a1 1 0 0 1 0-1.226l.083-.094 2-2 .094-.083ZM9.12 2.446l.064.104.053.115 4.304 11a1 1 0 0 1-1.813.835l-.05-.106-1.11-2.84H6.041l-1.11 2.84a1 1 0 0 1-1.185.603l-.111-.036a1 1 0 0 1-.603-1.185l.036-.11 4.304-11c.3-.768 1.31-.84 1.746-.22Zm10.022.084a1 1 0 0 1 1.85.724l-.036.11-4.305 11-.053.116c-.371.694-1.385.694-1.756 0l-.053-.115-4.305-11-.036-.111a1 1 0 0 1 .497-1.136l.106-.049.111-.036a1 1 0 0 1 1.136.497l.049.106 3.372 8.62 3.374-8.62.049-.106ZM8.304 5.773 6.825 9.554h2.958L8.304 5.773Z"/></svg>
